icons/ppe_santizer_alt.svg

<svg width="48" height="48" viewBox="0 0 48 48" fill="none" xmlns="http://www.w3.org/2000/svg">
<path fill-rule="evenodd" clip-rule="evenodd" d="M14 6C12.8954 6 12 6.89543 12 8V15.1C9.71776 15.5633 8 17.581 8 20V37C8 39.7614 10.2386 42 13 42H25C27.0503 42 28.8124 40.7659 29.584 39H27.2361C26.6868 39.6137 25.8885 40 25 40H13C11.3431 40 10 38.6569 10 37V36H20C20.5523 36 21 35.5523 21 35C21 34.4477 20.5523 34 20 34H10V25H18C18.5523 25 19 24.5523 19 24C19 23.4477 18.5523 23 18 23H10V20C10 18.3431 11.3431 17 13 17H25C25.8885 17 26.6868 17.3863 27.2361 18H29.584C28.9413 16.5291 27.6113 15.4271 26 15.1V8C26 6.89543 25.1046 6 24 6H14ZM24 8H14V15H24V8Z" fill="black"/>
<path d="M31 24C31.5523 24 32 24.4477 32 25V27H34C34.5523 27 35 27.4477 35 28C35 28.5523 34.5523 29 34 29H32V31C32 31.5523 31.5523 32 31 32C30.4477 32 30 31.5523 30 31V29H28C27.4477 29 27 28.5523 27 28C27 27.4477 27.4477 27 28 27H30V25C30 24.4477 30.4477 24 31 24Z" fill="black"/>
<path fill-rule="evenodd" clip-rule="evenodd" d="M23.6597 33.6888C25.3871 35.8713 27.8 37.3922 30.4992 38C33.1987 37.3926 35.612 35.8717 37.3397 33.6892C39.0674 31.5067 40.006 28.7934 40 25.9984V22.3997C40 21.7632 39.7498 21.1529 39.3045 20.7028C38.8592 20.2528 38.2553 20 37.6256 20H23.3744C22.7447 20 22.1408 20.2528 21.6955 20.7028C21.2502 21.1529 21 21.7632 21 22.3997V25.9984C20.9939 28.7932 21.9323 31.5063 23.6597 33.6888ZM38 25.9984L38 26.0027C38.005 28.3476 37.2174 30.6214 35.7716 32.4479C34.4208 34.1542 32.5719 35.3738 30.4993 35.9395C28.427 35.3736 26.5784 34.1539 25.2279 32.4475C23.7823 30.6211 22.9949 28.3475 23 26.0027V22.3997C23 22.2869 23.0446 22.1829 23.1172 22.1096C23.189 22.0369 23.282 22 23.3744 22H37.6256C37.718 22 37.811 22.0369 37.8828 22.1096C37.9554 22.1829 38 22.2869 38 22.3997L38 25.9984Z" fill="black"/>
</svg>

<svg
  xmlns="http://www.w3.org/2000/svg"
  width="24"
  height="24"
  viewBox="0 0 24 24"
  fill="none"
  stroke="currentColor"
  stroke-width="2"
  stroke-linecap="round"
  stroke-linejoin="round"
>
  <path
    fill-rule="evenodd"
    d="M14 6a2 2 0 0 0-2 2v7.1A5 5 0 0 0 8 20v17a5 5 0 0 0 5 5h12a5 5 0 0 0 4.584-3h-2.348c-.55.614-1.348 1-2.236 1H13a3 3 0 0 1-3-3v-1h10a1 1 0 1 0 0-2H10v-9h8a1 1 0 1 0 0-2h-8v-3a3 3 0 0 1 3-3h12c.889 0 1.687.386 2.236 1h2.348A5.01 5.01 0 0 0 26 15.1V8a2 2 0 0 0-2-2zm10 2H14v7h10z"
    clip-rule="evenodd"
  />
  <path d="M31 24a1 1 0 0 1 1 1v2h2a1 1 0 1 1 0 2h-2v2a1 1 0 1 1-2 0v-2h-2a1 1 0 1 1 0-2h2v-2a1 1 0 0 1 1-1" />
  <path
    fill-rule="evenodd"
    d="M23.66 33.689A12.12 12.12 0 0 0 30.5 38a12.12 12.12 0 0 0 6.84-4.31A12.35 12.35 0 0 0 40 25.997V22.4c0-.637-.25-1.247-.696-1.697A2.36 2.36 0 0 0 37.627 20H23.374c-.63 0-1.233.253-1.678.703A2.41 2.41 0 0 0 21 22.4v3.598a12.35 12.35 0 0 0 2.66 7.69M38 25.999v.004a10.35 10.35 0 0 1-2.228 6.445 10.13 10.13 0 0 1-5.273 3.492 10.13 10.13 0 0 1-5.271-3.492A10.35 10.35 0 0 1 23 26.002V22.4c0-.113.045-.217.117-.29a.36.36 0 0 1 .257-.11h14.252c.092 0 .185.037.257.11a.41.41 0 0 1 .117.29z"
    clip-rule="evenodd"
  />
</svg>
